X:76
T:76 The Muses
C:Shoosmith MS
N:STB repeats bar3, making a 9 bar phrase which I think is a transcription error
I:abc2nwc
M:6/8
L:1/8
K:D
A/2G/2|FAd FAd|BAB e2d|cBc ABc|dcd f2A/2G/2|
FAd FAd|BAB e2d|cBc ABc|d3d2:|
a|:f2a e2a|dcd d2a|f2a e2a|gfg a2a|f2a e2a|dcd d2a|f2a e2a|^g3fga:|


